!!!COM: Scarlatti, Domenico
!!!CDT: 1685///-1757///
!!!OTL: Sonata in G minor, K.60, L.13
!!!SCT: K. 60
!!!SCT: L. 13
!!!OMD: Allegretto ([quarter]=126)
**kern	**kern	**dynam
*staff2	*staff1	*staff1/2
*Icemba	*Icemba	*Icemba
*I"13.	*I"13.	*
*>[A,A,B,B]	*>[A,A,B,B]	*>[A,A,B,B]
*>norep[A,B]	*>norep[A,B]	*>norep[A,B]
*>A	*>A	*>A
*clefF4	*clefG2	*clefG2
*k[b-e-]	*k[b-e-]	*k[b-e-]
*g:	*g:	*g:
*M3/4	*M3/4	*M3/4
*MM126	*MM126	*MM126
=1-	=1-	=1-
2GG	(4gg	f
.	8gL)	.
.	(8ff	p
(4G	8ee-	.
.	8ccJ	.
=2	=2	=2
4.F#)	8ddL	.
.	8b-	.
.	8cc	.
(8F#	8a	.
4G	8b-	.
.	8gJ	.
=3	=3	=3
4d	8f#L	.
.	8gJ	.
8DL)	4a)	.
(>8c	.	.
8B-	(>[4d	.
8GJ	.	.
=4	=4	=4
8AL<	8dL]	.
8F#	8a 8ccJ)	.
8G	4.g (>4.b-	.
8C	.	.
8D	.	.
8DDJ	8f# 8a	.
!!LO:LB:g=z
=5	=5	=5
4.GG)	8b-'L<)	.
.	8g'J	.
.	(4.ee-	.
(8GL	.	.
8A	.	.
8FnJ	8fn	.
=6	=6	=6
4B-)	8dd'L)	<
.	8b-'J	.
8r	(4.ff	.
(8AL	.	.
8Bn	.	.
8GJ	8g	.
=7	=7	=7
4c)	8ee-'L)	.
.	8cc'J	.
8r	(4.gg	.
(8BnL	.	.
8c#	.	.
8AJ	8a	.
=8	=8	=8
4.d	8ff'L)	f
.	8dd'J	.
.	(4.aa	.
8cn	.	.
4B-X	.	.
.	8dd	.
=9	=9	=9
4A	8cc#L	.
.	8ddJ	.
8AAL)	4een)	.
(8G	.	mf
8F	(>[<4a	.
8DJ	.	.
!!LO:LB:g=z
=10	=10	=10
8EnL	8aL]	.
8C#	8een' 8gg'J)	p
8D	4.dd (4.ff	.
8G	.	.
8A	.	.
8AAJ	8cc# 8ee	.
=11	=11	=11
8DL)	4.dd 4.ff)	.
(8d	.	.
8Bn	.	mf
8G	8dd' 8ff'	.
8c	4ccn (4ee-X	>
8CJ	.	.
=12	=12	=12
4G)	8bn 8ddL)	.
.	(>8g	] p
(4F	8a-	.
.	8f	.
4BBn	8dd	.
.	8gJ	.
=13	=13	=13
*	*^	*
8CL)	2ryy	4.cc 4.ee-)	.
(8c	.	.	mf
8A	.	.	.
8FJ	.	8cc' 8ee-'	.
4B-X')	(4dd	8b-XL	>
.	.	8gJ	.
=14	=14	=14	=14
(>4F#	4cc	8aL	] p
.	.	8dJ	.
4G	4b-	8gL	.
.	.	8dJ	.
4C#	4a	8gL	.
.	.	8enJ	.
*	*v	*v	*
!!LO:LB:g=z
=15	=15	=15
4D	8f#L	.
.	8gJ	.
8DDL)	4a)	.
(8Cn	.	.
8BB-	(>[4d	.
8GGJ	.	.
=16	=16	=16
*	*^	*
8AAL	8dL]	4ryy	.
8F#	8a' 8cc'J)	.	.
8GG	(4b-	(<4.g	.
8GJ	.	.	.
4C	4ee-	.	.
.	.	16aLL	.
.	.	16gJJ	.
=17	=17	=17	=17
4D/	4dd)	8f#L	.
.	.	8gJ	.
8DDL)	4ryy	4a\)	<
(<8C	.	.	.
8BB-	(>[4d	4ryy	.
8GGJ	.	.	.
=18	=18	=18	=18
8CL	8dL]	4ryy	.
8F#	8a'> 8cc'>J)	.	.
8BB-	(4b-	(4.g	.
8GJ	.	.	.
4C	4ee-	.	.
.	.	16aLL	.
.	.	16gJJ	.
=19	=19	=19	=19
4D	4dd)	8f#L	.
.	.	8gJ	.
8DDL)	4ryy	4a\)	.
(8C	.	.	mf
8BB-	(8rff	4d	.
8GJ	[<8dd	.	.
*	*v	*v	*
!!LO:LB:g=z
=20	=20	=20
8AAL	8ddL]	.
8F#J	8ccJ	.
4GG 4G)	4b-)	.
4C# 4G	(8.b-TL	.
.	32aLL	.
.	32b-JJJ	.
=21	=21	=21
*	*^	*
4DD 4D	8aL	2ryy	.
.	16gL	.	.
.	16aJJ	.	.
4r	8b-L)	.	.
.	(8f#J	.	.
4r	4b-	8gL	.
.	.	8enJ)	.
=22	=22	=22	=22
4DD 4D	(4aa	8ff#L	f >
.	.	8ddJ	.
4r	4gg	8ee-XL	.
.	.	8ccJ	.
4r	4ff#	8ddL	.
.	.	8aJ	]
=23	=23	=23	=23
4DD 4D	4gg	8b-L	.
.	.	8gJ	.
4DD 4D	4ff#	8ccL	.
.	.	8aJ	.
4DD 4D	4gg	8b-L	.
.	.	8gJ	.
*	*v	*v	*
=24	=24	=24
4.DD (>4.D	4a' 4dd' 4ff#' 4aa')	f
.	4a' 4dd' 4ff#' 4aa'	.
!	!	!LO:HP:b=2
8CL	.	>
8BB-	4r	.
8AAJ)	.	]]
!!LO:LB:g=z
=25:|!|:	=25:|!|:	=25:|!|:
2BB-	(4bb-	f
.	8b-L)	.
.	(8aa	p
(4B-	8gg	.
.	8ee-J	.
=26	=26	=26
4.A)	8ffL	.
.	8dd	.
.	8ee-	.
(8A	8cc	.
4B-	8dd	.
.	8b-J	.
=27	=27	=27
4f	8aL	.
.	8b-J	.
8FL)	4cc)	.
(8e-	.	.
8d	(>[4f	.
8B-J	.	.
=28	=28	=28
8cL	8fL<]	.
8A	8cc' 8ee-'J)	.
8B-	4.b- (4.dd	.
8E-	.	.
8F	.	.
8FFJ	8a 8cc	.
=29	=29	=29
*	*^	*
4.BB-)	8ddL	(4.b-	<
.	8eenJ	.	.
.	4.ff	.	[[
(<8A-	.	8cc	>
4G 4B-	.	4b-)	.
.	8ee)	.	]]
*	*v	*v	*
!!LO:LB:g=z
=30	=30	=30
4A- 4c	(8ffL	.
.	8ccJ	.
4B-	8dd-L	.
.	8b-J	.
4En 4c	8ccL<	.
.	8gJ	.
=31	=31	=31
4F) 4c	8.a-LMM	.
.	16gJk	.
8r	4f)	.
(8fL	.	.
8e-X	([4cc	.
8cJ	.	.
=32	=32	=32
8dL	8cc]L	.
8Bn	8dd' 8ff'J)	.
8c	(4.cc 4.ee-	mf >
8F	.	.
8G	.	.
8GGJ	8bn 8dd	]]
=33	=33	=33
8CL)	4cc 4ee-)	p
(>8A-	.	.
8BB-X	(4dd	.
8G	.	.
8AA-	4cc)	.
8FJ	.	.
!!LO:LB:g=z
=34	=34	=34
*	*^	*
4GG)	2ryy	(8ddLm	.
.	.	16ccL	.
.	.	16ddJJ	.
4r	.	8ee-L)	<
.	.	(8bnJ	.
4r	4ee-	8ccL	[ mf
.	.	8aJ	.
=35	=35	=35	=35
4GG	4dd	8bnL	>
.	.	8gJ	.
4r	4cc	8a-L	.
.	.	8fJ	]
4r	4b	8gL	.
.	.	8dJ	.
=36	=36	=36	=36
4GG	4cc	8e-L	.
.	.	8cJ	.
4GG	4bn	8fL	.
.	.	8dJ	.
4GG	4cc	8e-L	.
.	.	8cJ	.
*	*v	*v	*
=37	=37	=37
4.GG	4d' 4g' 4bn' 4dd')	mf
.	4d' 4g' 4b' 4dd'	.
(8FL	.	.
8E-	(4gg	f
8cJ	.	.
!!LO:LB:g=z
=38	=38	=38
8DL	4ff	.
8BnJ	.	.
8CL	4ee-	.
8AJ	.	.
8BB-XL	4dd	>
8GJ	.	]]
=39	=39	=39
8AAL<	4cc	mf
8F#J	.	.
8BB-L	4dd	.
8GJ	.	.
8AAL<	4cc	.
8F#J	.	.
=40	=40	=40
*	*^	*
4GG	2ryy	8b-L<	.
.	.	16aL	.
.	.	16b-JJ	.
4C)	.	8ccL)	.
.	.	(<8b-	.
(4C [4c	(4ee-	8a	.
.	.	8gJ	.
=41	=41	=41	=41
8cL]	4dd)	8f#L	.
8B-	.	8g	.
8A	2ryy	8a	.
8G	.	8b-J	.
8F#	.	[4cc)	.
8EnJ	.	.	.
!!LO:LB:g=z
=42	=42	=42	=42
4DD)	(<8ccL]	4d	.
.	8b-	.	.
4DD	8a	4ryy	.
.	8gJ	.	.
4DD	4cc#	8f#L	.
.	.	8enJ	.
=43	=43	=43	=43
4DD	2dd	8dL	.
.	.	16f#L	.
.	.	16gJJ	.
8r	.	4a)	.
(8DL	.	.	.
8E-X	4rff	(>[4g	.
8CJ	.	.	.
*	*v	*v	*
=44	=44	=44
4DD)	8gL]	<
.	16f#L	.
.	16gJJ	.
8r	4a)	.
(8DL<	.	.
8G	(>[4g	.
8GGJ	.	.
=45	=45	=45
4DD)	8gL]	.
.	16aL	.
.	16b-JJ	.
8r	4f# 4a 4cc)	.
(8DL<	.	.
8G	4d 4g 4b-	.
8GGJ	.	.
!!LO:LB:g=z
=46	=46	=46
4DD)	8r	.
.	(>16aLL	.
.	16b-JJ	.
8r	4f# 4a 4cc)	.
(8DL<	.	.
8G	4d 4g 4b-	.
8GGJ	.	.
=47	=47	=47
*	*^	*
4C	8r	(4cc 4ee-	f
.	4aa	.	.
4D/	.	4b- 4dd	.
.	4gg	.	.
4DD	.	4a 4cc	.
.	8ff#	.	.
=48	=48	=48	=48
4GG)	[2gg	8b-L)	.
.	.	(16aL	p
.	.	16b-JJ	<
4r	.	8ccL	.
.	.	8dd	.
4r	8ggL]	8een	.
.	8aaJ	8ff#J)	[
=49	=49	=49	=49
4GG	(8b-L	[2g	p
.	16aL	.	.
.	16b-JJ	.	.
4r	8ccL	.	<
.	8dd	.	.
4r	8een	8gL]	.
.	8ff#J	(8aJ	[
!!LO:LB:g=z
=50	=50	=50	=50
(8GGL	2.gg)	4b-	mf
16AAL	.	.	<
16BB-JJ	.	.	.
8CL	.	4g	.
8D	.	.	.
8En	.	[>4cc	.
8F#J	.	.	.
*	*v	*v	*
=51	=51	=51
8GL	8ccL]	.
8A	16b-L	.
.	16ccJJ	.
8B-	8dd)	.
8c	(4g	.
8d)	.	.
(8DJ	8f#)	.
=52	=52	=52
4GG)	8r	.
.	(8ggL	f
4GG	8dd	.
.	8b-	.
4GG	8g)	.
.	(8ff#J	.
=53	=53	=53
4GG	4g' 4b-' 4dd' 4gg')	.
4r	4g' 4b-' 4dd' 4gg'	.
4r	4r	.
==:|!	==:|!	==:|!
*-	*-	*-
!!!RDF**kern: > = above
!!!RDF**kern: < = below
!!!PTL: Domenico Scarlatti: Opere complete per clavicembalo, vol. 1
!!!PED: Longo, Alessandro
!!!PPR: Ricordi
!!!PPP: Milan
!!!PDT: 1906-1913
!!!ENC: Kelly Leistikow
!!!END: 2005/08/07
!!!EED: Craig Stuart Sapp
!!!EEV: 2020/12/24
